phalcon/images/svg/logo--tablet.svg

<svg width="35" height="39" viewBox="0 0 35 39" fill="none" xmlns="http://www.w3.org/2000/svg">
<path d="M14.6501 23.0037L12.8411 23.8612L16.5778 23.5655L17.2895 23.0037L17.0819 22.6489L14.6501 23.0037Z" fill="#ACD2B4"/>
<path d="M20.9668 33.0568L22.7462 33.8847V34.417L21.5303 33.9143L21.382 34.1804L22.509 34.7422L22.9835 35.8953L21.8565 34.9492H21.6193L21.8565 37.8468L20.433 36.191L20.3144 34.5057L20.9668 33.0568Z" fill="#3A3A3A"/>
<path d="M18.5948 32.8203L20.6411 34.8013V36.1614L18.8024 36.9302L17.6754 34.9196V29.0356L18.1499 28.119L18.3279 28.2668L18.5948 32.8203Z" fill="#8FC19A"/>
<path d="M23.1911 28.06L24.9704 28.8879V29.4496L23.7842 28.9174L23.6359 29.1835L24.7035 29.7158L25.2077 30.928L24.1401 29.9523H23.9028L24.1104 32.8204L22.5683 31.0463L22.509 29.7158L23.1911 28.06Z" fill="#3A3A3A"/>
<path d="M21.6788 29.1834L22.7464 29.893V30.987L19.7808 32.1106L18.7428 29.9226L18.5056 28.5033L19.1876 28.0598L21.2043 27.9415L21.6788 29.1834Z" fill="#678A6F"/>
<path d="M15.0063 27.498L18.8023 24.9552L15.8663 24.1864L10.2909 29.7156V33.3229L11.6847 38.0833V35.5701L15.0063 27.498Z" fill="#3A3A3A"/>
<path d="M28.1734 24.2752C28.1141 24.2752 24.585 25.1622 24.585 25.1622L21.0856 28.0599H19.1876L24.9706 24.2752H28.1734Z" fill="#3A3A3A"/>
<path d="M32.889 21.8211L34.3125 24.0978L32.6221 24.9849L26.3349 22.4125L26.1866 20.668L29.6861 20.9045L32.889 21.8211Z" fill="#79A281"/>
<path d="M32.8593 23.5951L32.2958 24.0091L32.2365 23.9204L32.8593 23.4473L33.749 23.9499L33.6897 24.0682L32.8593 23.5951Z" fill="#3A3A3A"/>
<path d="M19.0393 18.1251L25.7713 19.8105V23.6839L23.1912 22.7081L18.1497 20.1357L19.0393 18.1251Z" fill="#8FC19A"/>
<path d="M27.432 18.8052L24.407 15.8188L24.496 13.0394L27.432 18.8052Z" fill="#7AA383"/>
<path d="M26.3349 19.9288L24.5259 12.182L10.2612 0L12.3668 5.79531L20.6705 13.7786L26.3349 19.9288Z" fill="#CCE2D2"/>
<path d="M10.0537 5.94302L15.2435 11.8566L20.6706 13.7785L9.57916 3.07493L10.0537 5.94302Z" fill="#ACD2B4"/>
<path d="M2.84711 12.3594L8.63009 13.9265L13.3158 18.5391L8.33353 17.0607L7.02865 16.1737L2.84711 12.3594Z" fill="#393839"/>
<path d="M18.1197 21.3185L18.0011 22.2942L12.4554 21.7915L8.06622 19.4261L18.1197 21.3185Z" fill="#ACD2B4"/>
<path d="M16.5184 23.3586L14.2942 23.1517L10.8837 22.0576L18.2088 22.3238L25.356 22.9151L26.1864 24.4526L24.407 24.1274L20.522 23.7726L17.7047 22.7081L16.5184 23.3586Z" fill="#678A6F"/>
<path d="M5.36786 16.1145L17.527 19.8105L23.1913 22.7082L18.0015 22.2942L11.3881 20.3132L5.36786 16.1145Z" fill="#CCE1D1"/>
<path d="M4.15188 12.0044L9.04518 15.7595L13.3157 18.5389L18.1497 20.1356L19.0394 18.125L0.771057 7.21441L4.15188 12.0044Z" fill="#78A381"/>
<path d="M0 3.07493L5.30849 10.3191L19.0394 18.125L26.3348 19.9286L20.6705 13.7785L0 3.07493Z" fill="#393839"/>
<path d="M25.7714 23.6542V19.8104L26.3349 19.9287V20.0469L29.6861 20.9044L26.7797 21.3183L29.0929 22.2941L26.7797 22.3532L30.4275 23.802L32.622 24.9848L32.7407 25.4874L29.2709 24.2751H26.1866L25.7714 23.6542Z" fill="#CCE1D1"/>
<path d="M34.3124 26.0789L33.4227 26.8476H32.5034L32.9185 26.138L32.622 24.9849L34.3124 24.0978V26.0789Z" fill="#3A3A3A"/>
<path d="M14.6504 33.2343L15.3028 34.0622L15.1545 34.2692L15.629 39L12.6041 33.2638L15.1842 27.1729L20.5223 23.7726L24.9708 24.2456V24.2752L17.6753 29.0356L17.0525 28.119L14.6504 33.2343Z" fill="#CDE3D2"/>
<path d="M20.5219 23.7726L10.2904 30.1593L8.06622 32.7908L8.83729 29.9227L11.1505 26.7589L17.7045 22.7081L20.5219 23.7726Z" fill="#8FC19A"/>
<path d="M17.6753 29.0356V36.2206L18.5947 38.4973L14.6504 33.2342L17.0526 28.119L17.6753 29.0356Z" fill="#78A381"/>
<path d="M7.62183 28.326V29.3313L9.51983 26.7884L7.62183 28.326Z" fill="#3A3A3A"/>
<path d="M9.57883 34.8604L9.90505 36.8415L9.1933 36.398V33.9438L9.57883 34.8604Z" fill="#678A6F"/>
</svg>

<svg width="35" height="39" viewBox="0 0 35 39" fill="none" xmlns="http://www.w3.org/2000/svg"><path d="M14.65 23.004l-1.809.857 3.737-.296.712-.561-.208-.355-2.432.355z" fill="#ACD2B4"/><path d="M20.967 33.057l1.78.828v.532l-1.217-.503-.148.266 1.127.562.474 1.153-1.127-.946h-.237l.238 2.898-1.424-1.656-.119-1.685.653-1.45z" fill="#3A3A3A"/><path d="M18.595 32.82l2.046 1.981v1.36l-1.839.77-1.127-2.011v-5.884l.475-.917.178.148.267 4.553z" fill="#8FC19A"/><path d="M23.191 28.06l1.78.828v.562l-1.187-.533-.148.266 1.067.533.505 1.212-1.068-.976h-.237l.207 2.868-1.542-1.774-.059-1.33.682-1.656z" fill="#3A3A3A"/><path d="M21.679 29.183l1.067.71v1.094l-2.965 1.124-1.038-2.188-.237-1.42.682-.443 2.016-.118.475 1.241z" fill="#678A6F"/><path d="M15.006 27.498l3.796-2.543-2.936-.769-5.575 5.53v3.607l1.394 4.76V35.57l3.321-8.072zM28.173 24.275c-.059 0-3.588.887-3.588.887l-3.5 2.898h-1.897l5.783-3.785h3.202z" fill="#3A3A3A"/><path d="M32.889 21.821l1.423 2.277-1.69.887-6.287-2.572-.148-1.745 3.5.236 3.202.917z" fill="#79A281"/><path d="M32.86 23.595l-.564.414-.06-.089.623-.473.89.503-.06.118-.83-.473z" fill="#3A3A3A"/><path d="M19.04 18.125l6.731 1.686v3.873l-2.58-.976-5.041-2.572.89-2.01z" fill="#8FC19A"/><path d="M27.432 18.805l-3.025-2.986.089-2.78 2.936 5.766z" fill="#7AA383"/><path d="M26.335 19.929l-1.81-7.747L10.262 0l2.106 5.795 8.303 7.984 5.665 6.15z" fill="#CCE2D2"/><path d="M10.054 5.943l5.19 5.914 5.427 1.921L9.579 3.075l.475 2.868z" fill="#ACD2B4"/><path d="M2.847 12.36l5.783 1.567 4.686 4.612-4.982-1.478-1.305-.887-4.182-3.815z" fill="#393839"/><path d="M18.12 21.319l-.119.975-5.546-.503-4.389-2.365L18.12 21.32z" fill="#ACD2B4"/><path d="M16.518 23.359l-2.224-.207-3.41-1.094 7.325.266 7.147.591.83 1.538-1.779-.326-3.885-.354-2.817-1.065-1.187.65z" fill="#678A6F"/><path d="M5.368 16.114l12.159 3.697 5.664 2.897-5.19-.414-6.613-1.98-6.02-4.2z" fill="#CCE1D1"/><path d="M4.152 12.004l4.893 3.755 4.27 2.78 4.835 1.597.89-2.011L.77 7.215l3.38 4.79z" fill="#78A381"/><path d="M0 3.075l5.308 7.244 13.731 7.806 7.296 1.804-5.665-6.15L0 3.074z" fill="#393839"/><path d="M25.771 23.654V19.81l.564.119v.118l3.351.857-2.906.414 2.313.976-2.313.06 3.647 1.448 2.195 1.183.119.502-3.47-1.212h-3.084l-.416-.62z" fill="#CCE1D1"/><path d="M34.312 26.079l-.89.769h-.919l.416-.71-.297-1.153 1.69-.887v1.98z" fill="#3A3A3A"/><path d="M14.65 33.234l.653.828-.149.207L15.63 39l-3.025-5.736 2.58-6.091 5.338-3.4 4.449.473v.03l-7.296 4.76-.623-.917-2.402 5.115z" fill="#CDE3D2"/><path d="M20.522 23.773L10.29 30.159l-2.224 2.632.771-2.868 2.313-3.164 6.554-4.05 2.818 1.064z" fill="#8FC19A"/><path d="M17.675 29.036v7.185l.92 2.276-3.945-5.263 2.403-5.115.622.917z" fill="#78A381"/><path d="M7.622 28.326v1.005l1.898-2.543-1.898 1.538z" fill="#3A3A3A"/><path d="M9.579 34.86l.326 1.982-.712-.444v-2.454l.386.916z" fill="#678A6F"/></svg>
